svg/s/UG.svg

<svg width="16" height="12" viewBox="0 0 16 12" fill="none" xmlns="http://www.w3.org/2000/svg">
<g clip-path="url(#clip0_270_55087)">
<rect width="16" height="12" fill="white"/>
<path fill-rule="evenodd" clip-rule="evenodd" d="M0 0V12H16V0H0Z" fill="#FECA00"/>
<mask id="mask0_270_55087" style="mask-type:luminance" maskUnits="userSpaceOnUse" x="0" y="0" width="16" height="12">
<path fill-rule="evenodd" clip-rule="evenodd" d="M0 0V12H16V0H0Z" fill="white"/>
</mask>
<g mask="url(#mask0_270_55087)">
<rect width="16" height="2" fill="#272727"/>
<rect y="4" width="16" height="2" fill="#D74800"/>
<rect y="6" width="16" height="2" fill="#272727"/>
<rect y="10" width="16" height="2" fill="#D74800"/>
<path fill-rule="evenodd" clip-rule="evenodd" d="M8 9C9.65685 9 11 7.65685 11 6C11 4.34315 9.65685 3 8 3C6.34315 3 5 4.34315 5 6C5 7.65685 6.34315 9 8 9Z" fill="#F7FCFF"/>
<path fill-rule="evenodd" clip-rule="evenodd" d="M6.83981 4.16432L6.31082 4.33789L6.83981 4.38318C6.83981 4.38318 6.92533 4.59236 6.83981 4.75565C6.8181 4.79711 6.7621 4.85021 6.69062 4.918C6.48051 5.11725 6.13666 5.44333 6.13666 5.97312C6.13666 6.68315 7.50693 7.00509 7.50693 7.00509V7.34243C7.50693 7.34243 7.66598 7.44122 6.75857 7.44122C5.97165 7.44122 6.02087 7.73994 6.04781 7.90347C6.05194 7.92851 6.05554 7.95038 6.05554 7.96752C6.05554 8.09663 6.43376 7.83841 6.61081 7.58132C6.70401 7.44598 7.09429 7.45313 7.49485 7.49025C7.52647 7.49318 7.81853 8.11185 7.56498 8.43145C7.45846 8.56571 7.09062 8.5832 6.86081 8.59413C6.74362 8.5997 6.66233 8.60357 6.66987 8.62034C6.67552 8.63292 6.74483 8.62878 6.84557 8.62277C6.9713 8.61526 7.14599 8.60484 7.30699 8.62034C7.33143 8.62269 7.23667 8.70493 7.14086 8.78809C7.04219 8.87374 6.9424 8.96036 6.97052 8.96168C7.00213 8.96317 7.18692 8.86081 7.35479 8.76781C7.49368 8.69087 7.62099 8.62034 7.64041 8.62034C7.76709 8.62034 7.88148 8.63597 7.98181 8.64968C8.14951 8.67259 8.27793 8.69014 8.35879 8.62034C8.38368 8.59885 8.23933 8.56427 8.09216 8.52901C7.94054 8.49268 7.78591 8.45564 7.81028 8.43145C7.94965 8.29313 7.89143 8.00322 7.84557 7.77489C7.825 7.67246 7.80692 7.58241 7.81028 7.52401C7.82221 7.31662 8.04157 7.42541 8.21398 7.5109C8.28948 7.54834 8.35597 7.58132 8.3921 7.58132C8.71859 7.58132 8.31319 7.16837 8.09067 6.94171C8.07117 6.92185 8.05307 6.90341 8.037 6.88681C7.92384 6.76997 8.00322 6.78567 8.18263 6.82115C8.31955 6.84822 8.51471 6.88681 8.727 6.88681C9.21749 6.88681 9.57548 6.72747 9.45112 6.29601C9.36907 6.01135 8.91985 5.9145 8.45052 5.8133C8.20846 5.76111 7.96104 5.70777 7.7559 5.62691C7.25118 5.42797 7.27692 5.13792 7.29868 4.89267C7.30291 4.84497 7.30699 4.79896 7.30699 4.75565C7.30699 4.48965 7.7559 4.16432 7.7559 4.16432C7.7559 4.16432 7.55103 3.82104 7.21129 3.82104C6.87155 3.82104 6.83981 4.16432 6.83981 4.16432ZM7.76391 7.28824V7.03736C7.76391 7.03736 7.97369 7.03044 8.04726 7.20692C8.12083 7.3834 7.76391 7.28824 7.76391 7.28824Z" fill="#272727"/>
<path fill-rule="evenodd" clip-rule="evenodd" d="M6.53845 3.35564L7.04523 3.95661L7.30768 3.89488L7.18182 3.28821L6.53845 3.35564Z" fill="#D74800"/>
<path fill-rule="evenodd" clip-rule="evenodd" d="M7.19639 3.21032L7.22906 4.11385L7.6618 4.00737L7.84608 3.41561L7.19639 3.21032Z" fill="#FFD018"/>
<path fill-rule="evenodd" clip-rule="evenodd" d="M6.78849 4.71946C6.88408 4.71946 6.96157 4.64391 6.96157 4.55071C6.96157 4.45751 6.88408 4.38196 6.78849 4.38196C6.69291 4.38196 6.61542 4.45751 6.61542 4.55071C6.61542 4.64391 6.69291 4.71946 6.78849 4.71946Z" fill="#D74800"/>
<path fill-rule="evenodd" clip-rule="evenodd" d="M7.88824 3.37957L7.3844 3.98301L7.49077 4.23075L8.06637 4.00145L7.88824 3.37957Z" fill="#D74800"/>
<path fill-rule="evenodd" clip-rule="evenodd" d="M9.05935 7.94654C9.05935 7.94654 9.94557 7.55065 9.94557 6.997C9.94557 6.44335 8.50656 5.84027 8.50656 5.84027C8.50656 5.84027 7.6601 6.034 8.04164 6.29325C8.42317 6.55251 8.93433 6.6521 8.93433 6.997C8.93433 7.3419 9.07437 7.67077 8.79047 7.67077C8.50656 7.67077 9.05935 7.94654 9.05935 7.94654Z" fill="#D74800"/>
<path fill-rule="evenodd" clip-rule="evenodd" d="M7.78079 5.73907C7.78079 5.73907 7.46736 5.79413 7.48224 5.84504C7.52338 5.98578 7.95195 6.16909 8.13874 6.29601C8.52027 6.55526 8.882 6.52614 9.1511 6.35742C9.42021 6.1887 7.78079 5.73907 7.78079 5.73907Z" fill="#FFFDFF"/>
</g>
</g>
<defs>
<clipPath id="clip0_270_55087">
<rect width="16" height="12" fill="white"/>
</clipPath>
</defs>
</svg>

<svg width="16" height="12" fill="none" xmlns="http://www.w3.org/2000/svg">
  <mask id="a" maskUnits="userSpaceOnUse" x="0" y="0" width="16" height="12">
    <rect width="16" height="12" rx="-1" fill="#fff"/>
  </mask>
  <g mask="url(#a)">
    <path fill-rule="evenodd" clip-rule="evenodd" d="M0 0v12h16V0H0z" fill="#FECA00"/>
    <mask id="b" maskUnits="userSpaceOnUse" x="0" y="0" width="16" height="12">
      <path fill-rule="evenodd" clip-rule="evenodd" d="M0 0v12h16V0H0z" fill="#fff"/>
    </mask>
    <g mask="url(#b)">
      <path fill="#272727" d="M0 0h16v2H0z"/>
      <path fill="#D74800" d="M0 4h16v2H0z"/>
      <path fill="#272727" d="M0 6h16v2H0z"/>
      <path fill="#D74800" d="M0 10h16v2H0z"/>
      <path fill-rule="evenodd" clip-rule="evenodd" d="M8 9a3 3 0 100-6 3 3 0 000 6z" fill="#F7FCFF"/>
      <path fill-rule="evenodd" clip-rule="evenodd" d="M6.84 4.164l-.53.174.53.045s.085.21 0 .373a.86.86 0 01-.15.162c-.21.2-.553.525-.553 1.055 0 .71 1.37 1.032 1.37 1.032v.337s.159.1-.748.1c-.787 0-.738.298-.711.461a.436.436 0 01.008.065c0 .129.378-.13.555-.387.093-.135.483-.128.884-.09.031.002.324.62.07.94-.107.135-.474.152-.704.163-.117.006-.199.01-.191.026.006.013.075.009.176.003.125-.008.3-.018.461-.003.024.003-.07.085-.166.168-.099.086-.199.172-.17.174.031.001.216-.101.384-.194.139-.077.266-.148.285-.148.127 0 .241.016.342.03.168.023.296.04.377-.03.025-.021-.12-.056-.267-.091-.151-.036-.306-.073-.282-.098.14-.138.081-.428.036-.656a1.198 1.198 0 01-.036-.251c.012-.207.232-.099.404-.013.075.037.142.07.178.07.327 0-.079-.413-.301-.64l-.054-.054c-.113-.117-.034-.101.146-.066.137.027.332.066.544.066.49 0 .848-.16.724-.591-.082-.285-.531-.381-1-.483a4.563 4.563 0 01-.695-.186c-.505-.199-.48-.49-.457-.734.004-.048.008-.094.008-.137 0-.266.449-.592.449-.592s-.205-.343-.545-.343c-.34 0-.371.343-.371.343zm.924 3.124v-.25s.21-.008.283.169c.074.176-.283.081-.283.081z" fill="#272727"/>
      <path fill-rule="evenodd" clip-rule="evenodd" d="M6.538 3.356l.507.6.263-.061-.126-.607-.644.068z" fill="#D74800"/>
      <path fill-rule="evenodd" clip-rule="evenodd" d="M7.196 3.21l.033.904.433-.107.184-.591-.65-.206z" fill="#FFD018"/>
      <path fill-rule="evenodd" clip-rule="evenodd" d="M6.788 4.72a.171.171 0 00.174-.17.171.171 0 00-.174-.168.171.171 0 00-.173.169.17.17 0 00.173.168zm1.1-1.34l-.504.603.107.248.575-.23-.178-.621zM9.06 7.947s.886-.396.886-.95c0-.554-1.44-1.157-1.44-1.157s-.846.194-.464.453c.381.26.892.36.892.704 0 .345.14.674-.144.674-.283 0 .27.276.27.276z" fill="#D74800"/>
      <path fill-rule="evenodd" clip-rule="evenodd" d="M7.78 5.74s-.313.054-.298.105c.041.14.47.324.657.451.381.26.743.23 1.012.061.27-.168-1.37-.618-1.37-.618z" fill="#FFFDFF"/>
    </g>
  </g>
</svg>
